!!!OTL: Totenlied (3-12), S. 43
!!!id: P0984
**kern
*clefG2
*k[]
*G:
{4d
=1
2g
4g
2a
4a
=2
16a
[2b
8.b]}
2r
=3
{4a
=4
2a
4b
2cc
4dd
=5
2b
4a
2a
4b}
=6
{2cc
4b
4b
4a
4g
=7
2.a}
2r
=8
{4b
=9
2b
4a
2a
4g
=10
4g
4a
4b
2a}
=11
{4b
=12
2b
4a
2a
4g
=13
4g
4a
4b
2a}
=14
{4b
=15
16b
[4.dd
16dd]
4a
16a
[4.b
16b]
8.b
16g
=16
2.g}
2r
==
*-
!!!minrhy: 16
!!!meters: 6/4 ]  ZZ[6
!!!cut: Totenlied (3-12), S. 43
!!!reg: Lothringen
!!!trd: PINCK, Louis: Verklingende Weisen, Bd3, Metz 1933
!!!rhy1: X__  X___X__X___X__  XX___^_.0___
!!!rhy2: X__  X___X__X___X__  X___X__X___X__
!!!key: P0984  16  G 6/4 ]  ZZ[6
!!!mod: PENTATONIK DUR ?]  AMBITUS[8
!!!kad: 332221
!!!akz: 122_2432_432_3212_3212_321_
!!!fot: 'a__b__c__cs'cs'cs'
!!!for: 'a__b__c__d__d__e__
!!!fok: '/__^a_\__\__\__\__
!! PHRAS[VORWIEGEND AUFTAKTIG]
!!!fkt: yyy
!! LOTH VKL
!! PR[12] 2K[12] 2G[16] 3K[6] 3G[4] 4A[2] 4Ü[0] 5A[0] 6K[0] 6G[0]
!! 7K[0] 7G[0] 8A[0] MEHR[0] SI[41] ABS[49] SR[29] SP[12]
!! ST[20] 2k[12] 2g[27] 3k[8] 3g[0] 4d[0] 4ü[0] 5d[0] 6k[0] 6g[0]
!! 7k[0] 7g[0] 8d[0] mehr[0] si[47] dm[-6] sr[39] sp[8]
!! 1F[2] 2F[2] 3F[76] 4F[12] LF[0] 2P[2] 3P[2] 4P[4] TRI[4] DF[7] AB[51]
!! TF[0] U3K[0] U3[0] U4[0] U4Ü[0] U5[0] U6K[0] U6[0] U7K[0] U7[2]
!! N1[14] N2K[0] N2[8] N3K[0] N3[14] N4[8] N4Ü[6] N5[28] N6K[0] N6[12]
!!!n7k: 0] N7[4] O1[4] O2K[0] O2[0] O3K[0] O3[0] HÖ[0
